X: 8
T: Crooked Road To Dublin, The
Z: skylos
S: https://thesession.org/tunes/227#setting53054
R: reel
M: 4/4
L: 1/8
K: Gmaj
G2 (3BAG FGAF|G2 FG AdcA|GBAG FG Ag|fdcA dBcA|
G2 ~G2 FGAF|G2 FG AdcA|GBAG FG Ag|fdcA d2 Bc||
dg~g2 fgaf|dg (3gfg agfa|dg~g2 fgag|fdcA dBcA|
dg~g2 fgaf|dg bg a2 ga|bagf gbag|fdcA d2 cA||

%-------------------- TUNE SEPARATOR --------------------%

